img/inside.svg

<svg width="669" height="675" viewBox="0 0 669 675" fill="none" xmlns="http://www.w3.org/2000/svg">
<path d="M333.9 636.5C309.4 636.2 284.9 633.1 261.2 626.9C249.4 623.8 237.7 620 226.4 615.5C223.6 614.3 220.7 613.2 217.9 612C215.1 610.7 212.3 609.6 209.6 608.2C206.9 606.9 204.1 605.6 201.4 604.2L193.3 599.9C171.9 588.1 152 573.8 134.1 557.2C116.3 540.6 100.4 521.9 87.1001 501.6C100.8 521.7 117 540 135 556.2C153.1 572.3 173.2 586.2 194.6 597.5L202.7 601.6C205.4 602.9 208.2 604.1 210.9 605.4C213.6 606.7 216.4 607.8 219.2 609C222 610.2 224.8 611.2 227.6 612.3C238.9 616.5 250.5 620.1 262.2 622.9C285.7 628.6 309.8 631.2 333.9 631C335.4 631 336.6 632.2 336.6 633.6C336.6 635.3 335.4 636.5 333.9 636.5Z" fill="url(#paint0_linear_2234_23)" style=""/>
<path d="M334.2 37.8999C358.7 38.1999 383.2 41.2999 406.9 47.4999C418.7 50.5999 430.4 54.3999 441.7 58.8999C444.5 60.0999 447.4 61.1999 450.2 62.3999C453 63.6999 455.8 64.7999 458.5 66.1999C461.2 67.4999 464 68.7999 466.7 70.1999L474.8 74.4999C496.2 86.2999 516.1 100.6 534 117.2C551.8 133.8 567.7 152.5 581 172.8C567.3 152.7 551.1 134.4 533.1 118.2C515 102 495 88.0999 473.6 76.7999L465.5 72.6999C462.8 71.3999 460 70.1999 457.3 68.8999C454.6 67.5999 451.8 66.4999 449 65.2999C446.2 64.0999 443.4 63.0999 440.6 61.9999C429.3 57.7999 417.7 54.1999 406 51.3999C382.5 45.6999 358.4 43.0999 334.3 43.2999C332.8 43.2999 331.6 42.0999 331.6 40.6999C331.5 39.0999 332.7 37.8999 334.2 37.8999Z" fill="url(#paint1_linear_2234_23)" style=""/>
<defs>
<linearGradient id="paint0_linear_2234_23" x1="86.9763" y1="569.101" x2="336.562" y2="569.101" gradientUnits="userSpaceOnUse">
<stop offset="0.4" stop-color="#E0EAFC" stop-opacity="0" style="stop-color:none;stop-opacity:0;"/>
<stop offset="1" stop-color="#1A2030" style="stop-color:#1A2030;stop-color:color(display-p3 0.1020 0.1255 0.1882);stop-opacity:1;"/>
</linearGradient>
<linearGradient id="paint1_linear_2234_23" x1="581.082" y1="105.318" x2="331.497" y2="105.318" gradientUnits="userSpaceOnUse">
<stop offset="0.399038" stop-color="#E0EAFC" stop-opacity="0" style="stop-color:none;stop-opacity:0;"/>
<stop offset="1" stop-color="#1A2030" style="stop-color:#1A2030;stop-color:color(display-p3 0.1020 0.1255 0.1882);stop-opacity:1;"/>
</linearGradient>
</defs>
</svg>

<?xml version="1.0" encoding="utf-8"?>
<!-- Generator: Adobe Illustrator 23.1.0, SVG Export Plug-In . SVG Version: 6.00 Build 0)  -->
<svg version="1.1" id="Слой_1" xmlns="http://www.w3.org/2000/svg" xmlns:xlink="http://www.w3.org/1999/xlink" x="0px" y="0px"
	 viewBox="0 0 668.4 674.4" style="enable-background:new 0 0 668.4 674.4;" xml:space="preserve">
<style type="text/css">
	.st0{fill:none;}
	.st1{fill:url(#SVGID_1_);}
	.st2{fill:url(#SVGID_2_);}
</style>
<path class="st0" d="M668.4,337.2c0,85.3-31.9,163.1-84.5,222.1c-61.2,68.8-150.4,112.1-249.7,112.1C149.6,671.4,0,521.8,0,337.2
	C0,152.6,149.6,3,334.2,3c48.7,0,95,10.4,136.8,29.2C587.4,84.4,668.4,201.4,668.4,337.2z"/>
<linearGradient id="SVGID_1_" gradientUnits="userSpaceOnUse" x1="86.9762" y1="569.1005" x2="336.5619" y2="569.1005">
	<stop  offset="0.32" style="stop-color:#E0EAFC"/>
	<stop  offset="1" style="stop-color:#1A2030"/>
</linearGradient>
<path class="st1" d="M333.9,636.5c-24.5-0.3-49-3.4-72.7-9.6c-11.8-3.1-23.5-6.9-34.8-11.4c-2.8-1.2-5.7-2.3-8.5-3.5
	c-2.8-1.3-5.6-2.4-8.3-3.8c-2.7-1.3-5.5-2.6-8.2-4l-8.1-4.3c-21.4-11.8-41.3-26.1-59.2-42.7c-17.8-16.6-33.7-35.3-47-55.6
	c13.7,20.1,29.9,38.4,47.9,54.6c18.1,16.1,38.2,30,59.6,41.3l8.1,4.1c2.7,1.3,5.5,2.5,8.2,3.8c2.7,1.3,5.5,2.4,8.3,3.6
	c2.8,1.2,5.6,2.2,8.4,3.3c11.3,4.2,22.9,7.8,34.6,10.6c23.5,5.7,47.6,8.3,71.7,8.1h0c1.5,0,2.7,1.2,2.7,2.6
	C336.6,635.3,335.4,636.5,333.9,636.5L333.9,636.5z"/>
<linearGradient id="SVGID_2_" gradientUnits="userSpaceOnUse" x1="394.588" y1="475.6052" x2="644.1738" y2="475.6052" gradientTransform="matrix(-1 0 0 -1 975.6704 580.9235)">
	<stop  offset="0.32" style="stop-color:#E0EAFC"/>
	<stop  offset="1" style="stop-color:#1A2030"/>
</linearGradient>
<path class="st2" d="M334.2,37.9c24.5,0.3,49,3.4,72.7,9.6c11.8,3.1,23.5,6.9,34.8,11.4c2.8,1.2,5.7,2.3,8.5,3.5
	c2.8,1.3,5.6,2.4,8.3,3.8c2.7,1.3,5.5,2.6,8.2,4l8.1,4.3c21.4,11.8,41.3,26.1,59.2,42.7c17.8,16.6,33.7,35.3,47,55.6
	c-13.7-20.1-29.9-38.4-47.9-54.6C515,102,495,88.1,473.6,76.8l-8.1-4.1c-2.7-1.3-5.5-2.5-8.2-3.8c-2.7-1.3-5.5-2.4-8.3-3.6
	c-2.8-1.2-5.6-2.2-8.4-3.3c-11.3-4.2-22.9-7.8-34.6-10.6c-23.5-5.7-47.6-8.3-71.7-8.1h0c-1.5,0-2.7-1.2-2.7-2.6
	C331.5,39.1,332.7,37.9,334.2,37.9L334.2,37.9z"/>
</svg>
